X: 7729
T:the Rose Tree
R:Reel
O:England
M:C
A:Westmorland
N:P11() 3/3
K:D
f>e|d2c2 A2F2|A3B A2Bc|d4 e2de|f2e2 e2fe|\
d2c2 A2F2|A3B A2Bc|d4 e2de|f2d2 d2:|
|:e2|f2e2 f2g2|a4 g2f2|e2b2 b2a2|b2e2 e2fe|\
d2c2 A2F2|A3B A2Bc|d4 e2de|f2d2d2:|
